images/SCH-Max.svg

<svg width="600" height="600" fill="none" xmlns="http://www.w3.org/2000/svg"><g clip-path="url(#a)"><rect width="600" height="600" rx="100" fill="#F9C23C"/><rect x="44" y="45" width="512" height="512" rx="75" fill="#000"/><path fill="#000" d="M272 546h56v56h-56zM272 0h56v56h-56zM544 272h56v56h-56zM0 272h56v56H0z"/><path d="M258.7 390c85.052 0 154-68.948 154-154s-68.948-154-154-154-154 68.948-154 154 68.948 154 154 154z" fill="#F9C23C"/><circle opacity=".53" cx="259.213" cy="236.513" r="121.66" fill="#D3883E"/><mask id="b" style="mask-type:alpha" maskUnits="userSpaceOnUse" x="137" y="114" width="244" height="245"><path d="M380.873 236.513c0 67.191-54.469 121.66-121.66 121.66s-121.66-54.469-121.66-121.66 54.469-121.66 121.66-121.66 121.66 54.469 121.66 121.66z" fill="#fff"/></mask><g mask="url(#b)"><path d="m253.901 203.047.013.665-32.974 47.872c-5.34-.244-10.696.694-15.784 2.786a34.291 34.291 0 0 0-6.308 3.367l-72.412-29.826s-1.676 27.549 5.306 48.078l51.192 21.11c2.527 11.481 10.444 21.547 22.075 26.387a37.414 37.414 0 0 0 28.598.041 37.382 37.382 0 0 0 20.265-20.166 37.394 37.394 0 0 0 2.88-15.386l47.136-33.689 1.158.021c28.236 0 51.187-23.004 51.187-51.26 0-28.255-22.909-51.175-51.187-51.234-28.223 0-51.187 22.979-51.187 51.234h.042zm-7.917 97.006c-6.123 14.73-23.018 21.661-37.703 15.546a28.795 28.795 0 0 1-14.84-14.149l16.664 6.902a21.223 21.223 0 0 0 16.25.026 21.21 21.21 0 0 0 11.506-11.469 21.24 21.24 0 0 0 .035-16.254 21.263 21.263 0 0 0-11.469-11.526l-17.266-7.133c6.646-2.525 14.2-2.61 21.267.324 7.159 2.958 12.633 8.53 15.564 15.655 2.931 7.125 2.915 14.983-.042 22.078m59.142-62.854a34.203 34.203 0 0 1-24.109-10.031 34.163 34.163 0 0 1-9.993-24.112 34.165 34.165 0 0 1 9.996-24.107 34.204 34.204 0 0 1 24.106-10.028 34.205 34.205 0 0 1 24.112 10.025 34.16 34.16 0 0 1 9.999 24.11 34.162 34.162 0 0 1-9.996 24.115 34.204 34.204 0 0 1-24.115 10.028zm-25.553-34.198a25.62 25.62 0 0 1 7.489-18.122 25.662 25.662 0 0 1 18.115-7.529c14.129 0 25.621 11.49 25.621 25.651a25.624 25.624 0 0 1-7.498 18.122 25.65 25.65 0 0 1-18.123 7.52 25.657 25.657 0 0 1-18.115-7.524 25.622 25.622 0 0 1-7.489-18.118z" fill="#FACD61"/></g><path d="m155.018 414.442 259.329 20.447 17.141-65.778h8.811c22.552 0 41.018 22.041 41.018 47.446v1.888c0 26.434-19.793 49.333-43.325 49.333H86.444c-8.987 0-16.444 6.282-16.444 15.724 0 9.441 7.354 17.165 16.341 17.165h352.324c41.509 0 75.335-36.907 75.335-82.222v-1.888c0-44.287-33.011-80.335-73.701-80.335h-.241l.051-.19c3.637-.801 6.469-4.023 6.469-7.716v-.632c0-2.364-1.079-4.458-2.76-5.895l43.378-166.456H122.622C93.68 155.333 70 178.889 70 208.824l8.551 139.695c2.467 41.386 41.44 63.142 76.467 65.923zm239.312-91.156h-31.838v-72.794h50.724l-18.886 72.794zm20.32-82.222h-52.158v-52.726l35.575.038c13.813 0 24.721 12.759 21.432 26.009l-4.849 26.679zm-61.586-52.745v52.745h-79.043v-52.831l79.043.086zm-88.471-.106v52.851h-82.661v-52.94l82.661.089zm-92.089-.109v52.96h-67.783l-1.832-33.222c0-10.96 8.88-19.793 19.898-19.793l49.717.055zm-66.77 62.388h66.77v72.794h-62.715l-4.055-72.794zm5.069 82.222h61.701v50.056l-14.691-.88c-22.035-1.801-45.057-14.395-46.373-35.334l-.637-13.842zm71.129 51.352v-51.352h82.661v57.308l-82.661-5.956zm92.089 7.252v-58.604h79.043v63.037c0 .423.033.839.095 1.245l-79.138-5.678zm88.471 4.108v-62.712h29.527l-13.795 48.684c-1.549 6.368-10.205 11.38-15.732 14.028zm-88.471-144.934h79.043v72.794h-79.043v-72.794zm-92.089 0h82.661v72.794h-82.661v-72.794z" fill="#9B9B9B"/><path d="M412.102 450.852c-9.235-2.166-14.984-11.329-12.72-20.16l80.323-312.057c2.264-8.831 11.848-14.329 21.082-12.163 9.235 2.166 14.984 11.33 12.72 20.16l-80.323 312.057c-2.265 8.997-11.674 14.328-21.082 12.163z" fill="#BEBEBE"/><path d="M481.111 138.889H514c9.044 0 16.444-7.4 16.444-16.445 0-9.044-7.4-16.444-16.444-16.444h-32.889c-9.044 0-16.444 7.4-16.444 16.444 0 9.045 7.4 16.445 16.444 16.445zM127.556 550c13.623 0 24.666-11.044 24.666-24.667 0-13.622-11.043-24.666-24.666-24.666-13.623 0-24.667 11.044-24.667 24.666 0 13.623 11.044 24.667 24.667 24.667zM423.556 550c13.622 0 24.666-11.044 24.666-24.667 0-13.622-11.044-24.666-24.666-24.666-13.623 0-24.667 11.044-24.667 24.666 0 13.623 11.044 24.667 24.667 24.667z" fill="#0084CE"/></g><defs><clipPath id="a"><path fill="#fff" d="M0 0h600v600H0z"/></clipPath></defs></svg>

<svg width="600" height="600" viewBox="0 0 600 600" fill="none" xmlns="http://www.w3.org/2000/svg">
<g clip-path="url(#clip0_2_59)">
<rect width="600" height="600" rx="100" fill="#F9C23C"/>
<rect x="44" y="45" width="512" height="512" rx="75" fill="black"/>
<rect x="272" y="546" width="56" height="56" fill="black"/>
<rect x="272" width="56" height="56" fill="black"/>
<rect x="544" y="272" width="56" height="56" fill="black"/>
<rect y="272" width="56" height="56" fill="black"/>
<path d="M258.7 390C343.752 390 412.7 321.052 412.7 236C412.7 150.948 343.752 82 258.7 82C173.648 82 104.7 150.948 104.7 236C104.7 321.052 173.648 390 258.7 390Z" fill="#F9C23C"/>
<circle opacity="0.53" cx="259.213" cy="236.513" r="121.66" fill="#D3883E"/>
<mask id="mask0_2_59" style="mask-type:alpha" maskUnits="userSpaceOnUse" x="137" y="114" width="244" height="245">
<path d="M380.873 236.513C380.873 303.704 326.404 358.173 259.213 358.173C192.022 358.173 137.553 303.704 137.553 236.513C137.553 169.322 192.022 114.853 259.213 114.853C326.404 114.853 380.873 169.322 380.873 236.513Z" fill="white"/>
</mask>
<g mask="url(#mask0_2_59)">
<path d="M253.901 203.047L253.914 203.712L220.94 251.584C215.6 251.34 210.244 252.278 205.156 254.37C202.942 255.269 200.828 256.398 198.848 257.737L126.436 227.911C126.436 227.911 124.76 255.46 131.742 275.989L182.934 297.099C185.461 308.58 193.378 318.646 205.009 323.486C214.16 327.286 224.445 327.301 233.607 323.527C242.769 319.754 250.057 312.501 253.872 303.361C255.907 298.493 256.888 293.249 256.752 287.975L303.888 254.286L305.046 254.307C333.282 254.307 356.233 231.303 356.233 203.047C356.233 174.792 333.324 151.872 305.046 151.813C276.823 151.813 253.859 174.792 253.859 203.047H253.901ZM245.984 300.053C239.861 314.783 222.966 321.714 208.281 315.599C201.765 312.862 196.483 307.827 193.441 301.45L210.105 308.352C212.679 309.423 215.439 309.977 218.227 309.981C221.016 309.985 223.777 309.441 226.355 308.378C228.933 307.315 231.275 305.756 233.25 303.788C235.224 301.82 236.791 299.483 237.861 296.909C240.027 291.71 240.04 285.864 237.896 280.655C235.752 275.446 231.627 271.301 226.427 269.129L209.161 261.996C215.807 259.471 223.361 259.386 230.428 262.32C237.587 265.278 243.061 270.85 245.992 277.975C248.923 285.1 248.907 292.958 245.95 300.053M305.092 237.199C296.045 237.175 287.375 233.568 280.983 227.168C274.591 220.768 270.998 212.098 270.99 203.056C271 194.015 274.595 185.347 280.986 178.949C287.378 172.551 296.046 168.945 305.092 168.921C314.14 168.943 322.811 172.548 329.204 178.946C335.598 185.344 339.193 194.014 339.203 203.056C339.195 212.099 335.601 220.771 329.207 227.171C322.813 233.571 314.142 237.177 305.092 237.199ZM279.539 203.001C279.533 196.207 282.227 189.689 287.028 184.879C291.829 180.07 298.345 177.362 305.143 177.35C319.272 177.35 330.764 188.84 330.764 203.001C330.767 209.796 328.07 216.315 323.266 221.123C318.461 225.932 311.943 228.637 305.143 228.643C298.346 228.633 291.83 225.927 287.028 221.119C282.227 216.311 279.536 209.794 279.539 203.001Z" fill="#FACD61"/>
</g>
<path d="M155.018 414.442L414.347 434.889L431.488 369.111H440.299C462.851 369.111 481.317 391.152 481.317 416.557V418.445C481.317 444.879 461.524 467.778 437.992 467.778H86.4444C77.4566 467.778 70 474.06 70 483.502C70 492.943 77.3536 500.667 86.3415 500.667H438.665C480.174 500.667 514 463.76 514 418.445V416.557C514 372.27 480.989 336.222 440.299 336.222H440.058L440.109 336.032C443.746 335.231 446.578 332.009 446.578 328.316V327.684C446.578 325.32 445.499 323.226 443.818 321.789L487.196 155.333H122.622C93.68 155.333 70 178.889 70 208.824L78.5511 348.519C81.0178 389.905 119.991 411.661 155.018 414.442ZM394.33 323.286H362.492V250.492H413.216L394.33 323.286ZM414.65 241.064H362.492V188.338L398.067 188.376C411.88 188.376 422.788 201.135 419.499 214.385L414.65 241.064ZM353.064 188.319V241.064H274.021V188.233L353.064 188.319ZM264.593 188.213V241.064H181.932V188.124L264.593 188.213ZM172.504 188.104V241.064H104.721L102.889 207.842C102.889 196.882 111.769 188.049 122.787 188.049L172.504 188.104ZM105.734 250.492H172.504V323.286H109.789L105.734 250.492ZM110.803 332.714H172.504V382.77L157.813 381.89C135.778 380.089 112.756 367.495 111.44 346.556L110.803 332.714ZM181.932 384.066V332.714H264.593V390.022L181.932 384.066ZM274.021 391.318V332.714H353.064V395.751C353.064 396.174 353.097 396.59 353.159 396.996L274.021 391.318ZM362.492 395.426V332.714H392.019L378.224 381.398C376.675 387.766 368.019 392.778 362.492 395.426ZM274.021 250.492H353.064V323.286H274.021V250.492ZM181.932 250.492H264.593V323.286H181.932V250.492Z" fill="#9B9B9B"/>
<path d="M412.102 450.852C402.867 448.686 397.118 439.523 399.382 430.692L479.705 118.635C481.969 109.804 491.553 104.306 500.787 106.472C510.022 108.638 515.771 117.802 513.507 126.632L433.184 438.689C430.919 447.686 421.51 453.017 412.102 450.852Z" fill="#BEBEBE"/>
<path d="M481.111 138.889H514C523.044 138.889 530.444 131.489 530.444 122.444C530.444 113.4 523.044 106 514 106H481.111C472.067 106 464.667 113.4 464.667 122.444C464.667 131.489 472.067 138.889 481.111 138.889Z" fill="#0084CE"/>
<path d="M127.556 550C141.179 550 152.222 538.956 152.222 525.333C152.222 511.711 141.179 500.667 127.556 500.667C113.933 500.667 102.889 511.711 102.889 525.333C102.889 538.956 113.933 550 127.556 550Z" fill="#0084CE"/>
<path d="M423.556 550C437.178 550 448.222 538.956 448.222 525.333C448.222 511.711 437.178 500.667 423.556 500.667C409.933 500.667 398.889 511.711 398.889 525.333C398.889 538.956 409.933 550 423.556 550Z" fill="#0084CE"/>
</g>
<defs>
<clipPath id="clip0_2_59">
<rect width="600" height="600" fill="white"/>
</clipPath>
</defs>
</svg>
